frontend/public/svg/interface/music-3.svg

<svg width="155" height="154" viewBox="0 0 155 154" fill="none" xmlns="http://www.w3.org/2000/svg">
<g clip-path="url(#clip0)">
<path d="M42.995 92.7007C41.4355 91.9697 39.8234 91.2133 38.3081 90.3796C37.396 89.9774 36.4035 89.7896 35.4074 89.8319C24.3662 89.52 15.3641 93.6442 8.60106 102.083C2.32799 109.909 0.00441289 119.284 1.69451 129.946C3.77709 143.089 12.2516 151.57 24.9459 153.214C26.438 153.407 27.9411 153.504 29.4457 153.503C34.8566 153.432 40.202 152.308 45.1836 150.195C58.6908 144.736 66.414 129.8 63.1477 115.454C62.8225 113.983 62.6444 112.484 62.6161 110.979C62.3146 98.8444 62.0495 86.5056 61.7942 74.5742L61.7609 73.0153C61.7369 71.9055 61.744 70.7768 61.7505 69.6865C61.7505 69.3284 61.7545 68.9723 61.7557 68.6156C86.6894 59.027 113.257 50.1152 142.931 41.3892L143.84 69.3778C143.54 69.3258 143.248 69.281 142.961 69.2368C142.074 69.1621 141.206 68.934 140.396 68.5636C133.067 64.4286 124.656 63.3923 114.691 65.3933C103.752 67.5876 96.3154 73.2616 92.5895 82.256C86.5594 96.8112 88.4042 110.814 97.9242 122.738C105.254 131.921 114.884 135.529 125.781 133.175C134.506 131.291 141.896 126.655 147.744 119.4C150.39 116.1 152.208 112.214 153.044 108.067C154.759 99.5644 154.634 90.7935 152.677 82.343C152.333 81.0051 152.15 79.6308 152.134 78.2494C152.219 74.9238 152.352 71.5403 152.481 68.2693C152.701 62.7027 152.928 56.9469 152.926 51.2788C152.926 40.3266 152.69 29.195 152.465 18.4286C152.41 15.8269 152.357 13.2253 152.304 10.6236C152.221 8.48373 151.99 6.35237 151.612 4.24462C151.234 1.90928 149.941 0.547353 148.067 0.507066L147.73 0.499769C145.257 0.444537 142.702 0.388705 140.327 1.03914C133.212 2.98851 125.697 5.2544 117.988 7.77754C109.596 10.5242 101.166 13.5969 93.0131 16.5691C81.1974 20.8759 68.9787 25.3302 56.6802 28.8605C55.6742 29.054 54.7442 29.5301 53.9992 30.2333L53.881 30.372C52.8803 31.5416 51.7464 32.8604 51.5417 34.3478C51.1131 37.4678 50.991 40.6222 51.1772 43.766C51.9465 56.7436 52.7912 69.9347 53.608 82.6881C53.9546 88.1099 54.3012 93.5318 54.6477 98.9529C54.6789 99.4507 54.673 99.9556 54.6645 100.486C51.4799 96.6787 47.1718 94.6578 42.995 92.7007ZM51.4605 110C55.302 115.523 56.1858 123.144 53.7654 129.884C52.7272 132.927 50.9677 135.673 48.6374 137.888C46.307 140.103 43.475 141.72 40.3835 142.603C37.8642 143.309 35.2391 143.846 32.7004 144.364C31.5346 144.602 30.3676 144.84 29.2065 145.095C18.6474 144.588 11.9462 138.687 10.3347 128.472C8.48734 116.765 12.8383 101.452 31.1806 96.8216C32.0307 96.6001 32.905 96.485 33.7836 96.4786C35.5012 96.4753 37.179 96.9964 38.5921 97.9731C44.3602 101.845 48.4494 105.666 51.4605 110ZM63.4029 58.4538C62.6563 58.7456 61.9084 59.0386 61.1546 59.3044C61.1065 59.3011 61.0501 59.2894 60.9813 59.2777L60.1319 39.0375L142.883 9.27063V35.2467C114.521 39.48 88.154 48.8089 63.8741 58.2698L63.4029 58.4538ZM144.218 90.9014C144.224 91.3192 144.23 91.7377 144.23 92.1555C144.23 92.2959 144.275 92.433 144.357 92.5467C144.439 92.661 144.556 92.7455 144.69 92.7897C144.546 94.0243 144.43 95.2745 144.315 96.4877C144.1 99.6294 143.65 102.751 142.97 105.826C140.425 116.038 127.642 124.69 117.163 123.291C110.893 122.455 105.8 118.688 102.435 112.396C97.6884 103.524 97.049 94.5396 100.534 85.6895C102.191 81.2014 105.522 77.5294 109.826 75.4423C114.278 73.1817 119.189 71.9692 124.181 71.8983C127.147 71.8996 130.094 72.3753 132.91 73.3077C138.799 75.2441 144.752 78.5197 144.242 88.1275C144.194 89.058 144.207 89.9943 144.22 90.904L144.218 90.9014Z" fill="black"/>
</g>
<defs>
<clipPath id="clip0">
<rect width="154" height="154" fill="white" transform="translate(0.777344)"/>
</clipPath>
</defs>
</svg>

<svg xmlns="http://www.w3.org/2000/svg" width="155" height="154" fill="none" viewBox="0 0 155 154"><g clip-path="url(#a)"><path fill="#000" d="M42.995 92.7c-1.56-.73-3.172-1.487-4.687-2.32a6.5 6.5 0 0 0-2.9-.548C24.365 89.52 15.363 93.644 8.6 102.083c-6.273 7.826-8.597 17.201-6.906 27.863 2.082 13.143 10.557 21.624 23.25 23.268 1.493.193 2.996.29 4.5.289a41.7 41.7 0 0 0 15.739-3.308c13.507-5.459 21.23-20.395 17.964-34.741a22.7 22.7 0 0 1-.532-4.475c-.301-12.135-.566-24.473-.822-36.405l-.033-1.559c-.024-1.11-.017-2.238-.01-3.329l.005-1.07c24.933-9.589 51.501-18.5 81.175-27.227l.909 27.989q-.45-.076-.879-.141a7.7 7.7 0 0 1-2.565-.673c-7.329-4.135-15.74-5.172-25.705-3.17-10.939 2.194-18.376 7.868-22.101 16.862-6.03 14.555-4.186 28.558 5.334 40.482 7.33 9.183 16.96 12.791 27.857 10.437 8.725-1.884 16.115-6.52 21.963-13.775a26.5 26.5 0 0 0 5.3-11.333 60.8 60.8 0 0 0-.367-25.724 17.2 17.2 0 0 1-.543-4.094c.085-3.325.218-6.709.347-9.98.22-5.566.447-11.322.445-16.99 0-10.952-.236-22.084-.461-32.85q-.082-3.903-.161-7.805a46 46 0 0 0-.692-6.38c-.378-2.335-1.671-3.697-3.545-3.737L147.73.5c-2.473-.055-5.028-.111-7.403.54a480 480 0 0 0-22.339 6.738c-8.392 2.746-16.822 5.819-24.975 8.791C81.197 20.876 68.98 25.33 56.68 28.861A5.4 5.4 0 0 0 54 30.232l-.119.139c-1 1.17-2.135 2.488-2.34 3.976a48 48 0 0 0-.364 9.418c.77 12.978 1.614 26.169 2.431 38.922l1.04 16.265c.03.498.025 1.003.016 1.533-3.184-3.807-7.492-5.828-11.669-7.785m8.466 17.3c3.841 5.523 4.725 13.144 2.304 19.884a19.92 19.92 0 0 1-13.382 12.719c-2.519.706-5.144 1.243-7.683 1.761-1.165.238-2.332.476-3.494.731-10.559-.507-17.26-6.408-18.871-16.623-1.848-11.707 2.503-27.02 20.846-31.65a10.6 10.6 0 0 1 2.603-.343 8.43 8.43 0 0 1 4.808 1.494c5.768 3.872 9.857 7.693 12.869 12.027m11.942-51.546c-.747.292-1.495.585-2.248.85-.049-.003-.105-.015-.174-.026l-.85-20.24L142.884 9.27v25.976c-28.363 4.234-54.73 13.563-79.01 23.024zM144.218 90.9q.01.628.012 1.255a.67.67 0 0 0 .46.634c-.144 1.234-.26 2.484-.375 3.698a63 63 0 0 1-1.345 9.338c-2.545 10.212-15.328 18.864-25.807 17.465-6.27-.836-11.363-4.603-14.728-10.895-4.747-8.872-5.386-17.856-1.901-26.707a18.52 18.52 0 0 1 9.292-10.247 32.7 32.7 0 0 1 14.355-3.544 27.8 27.8 0 0 1 8.729 1.41c5.889 1.936 11.842 5.212 11.332 14.82-.048.93-.035 1.866-.022 2.776z"/></g><defs><clipPath id="a"><path fill="#fff" d="M.777 0h154v154h-154z"/></clipPath></defs></svg>
